packages/sources/assets/src/assets/flag-gq.svg

<svg width="28" height="20" viewBox="0 0 28 20" fill="none" xmlns="http://www.w3.org/2000/svg">
<rect x="0.25" y="0.25" width="27.5" height="19.5" rx="1.75" fill="white" stroke="#F5F5F5" stroke-width="0.5"/>
<mask id="mask0_503_3906" style="mask-type:alpha" maskUnits="userSpaceOnUse" x="0" y="0" width="28" height="20">
<rect x="0.25" y="0.25" width="27.5" height="19.5" rx="1.75" fill="white" stroke="white" stroke-width="0.5"/>
</mask>
<g mask="url(#mask0_503_3906)">
<path fill-rule="evenodd" clip-rule="evenodd" d="M0 20H28V13.3333H0V20Z" fill="#EC3938"/>
<path fill-rule="evenodd" clip-rule="evenodd" d="M0 6.66667H28V0H0V6.66667Z" fill="#51B422"/>
<path fill-rule="evenodd" clip-rule="evenodd" d="M13.6068 11.7151C13.6367 11.684 13.6535 11.6426 13.6537 11.5995L13.665 9.62741C13.6659 9.46527 13.5348 9.33333 13.3726 9.33333C13.1121 9.33333 12.9816 9.01837 13.1658 8.83417L13.7643 8.2357C13.8945 8.10553 14.1055 8.10553 14.2357 8.2357L14.8334 8.83333C15.0179 9.01785 14.8872 9.33333 14.6262 9.33333C14.4645 9.33333 14.3334 9.46447 14.3334 9.62623V11.5976C14.3334 11.6418 14.3509 11.6842 14.3822 11.7155C14.4872 11.8205 14.4128 12 14.2643 12H13.7283C13.58 12 13.5041 11.8221 13.6068 11.7151Z" fill="#159940"/>
<path fill-rule="evenodd" clip-rule="evenodd" d="M0 0L9.33333 10L0 20V0Z" fill="#258DE7"/>
</g>
</svg>

<svg width="28" height="20" fill="none" xmlns="http://www.w3.org/2000/svg"><rect x=".25" y=".25" width="27.5" height="19.5" rx="1.75" fill="#fff" stroke="#F5F5F5" stroke-width=".5"/><mask id="a" style="mask-type:alpha" maskUnits="userSpaceOnUse" x="0" y="0" width="28" height="20"><rect x=".25" y=".25" width="27.5" height="19.5" rx="1.75" fill="#fff" stroke="#fff" stroke-width=".5"/></mask><g mask="url(#a)" fill-rule="evenodd" clip-rule="evenodd"><path d="M0 20h28v-6.667H0V20Z" fill="#EC3938"/><path d="M0 6.667h28V0H0v6.667Z" fill="#51B422"/><path d="M13.607 11.715a.168.168 0 0 0 .047-.115l.011-1.973a.292.292 0 0 0-.292-.294.292.292 0 0 1-.207-.499l.598-.598c.13-.13.341-.13.472 0l.597.597c.185.185.054.5-.207.5a.293.293 0 0 0-.293.293v1.972c0 .044.018.086.05.117a.167.167 0 0 1-.119.285h-.536a.168.168 0 0 1-.121-.285Z" fill="#159940"/><path d="m0 0 9.333 10L0 20V0Z" fill="#258DE7"/></g></svg>
